!!!!SEGMENT: pl-kk--kk-i-10--011_pekiel-bartlomiej--salvator-orbis.krn
!!!cenid: 16xx:1203
!!!COM: Pękiel, Bartłomiej
!!!COM-rismid: pe30105642
!!!CDT: <1633-~1670
!!!CNT: Polish
!!!OTL: Salvator orbis
!!!PDT:
!!!AGN: Sacred
!!!SMS-siglum: PL-Kk
!!!SMS-shelfmark: Kk.I.10
!!!SMS-shelfwork: 011 W
!!!SMS-variant:
!!!SMS-altvar:
!!!NIFC-rismid: 1001153887
!!!URL-scan: http://repozytorium.nifc.pl/skany/pl-kk-nut--i-10
!!!ONB-nifc: UWAGA: A (skan 0021-0022), T (0070-0071), B (0120). Następny utwór: Chorus novae Jerusalem
!!!AIN: 1 alto 1 bass 1 tenor
!!!key:
**kern	**text	**text	**dynam	**kern	**text	**dynam	**kern	**text	**dynam
*part3	*part3	*part3	*part3	*part2	*part2	*part2	*part1	*part1	*part1
*staff3	*staff3	*staff3	*	*staff2	*staff2	*	*staff1	*staff1	*
*Ibass	*	*	*	*Itenor	*	*	*Ialto	*	*
*I"Bassus.	*	*	*	*I"Tenor	*	*	*I"Altus.	*	*
*I'B	*	*	*	*I'T	*	*	*I'A	*	*
*clefF4	*	*	*	*clefC4	*	*	*clefC3	*	*
*k[]	*	*	*	*k[]	*	*	*k[]	*	*
*C:	*	*	*	*C:	*	*	*C:	*	*
*M3/1	*	*	*	*M3/1	*	*	*M3/1	*	*
=1-	=1-	=1-	=1-	=1-	=1-	=1-	=1-	=1-	=1-
1c\	Sal-	.	.	1c\	Sal-	.	1e\	Sal-	.
1A\	-ua-	.	.	1c\	-ua-	.	1e\	-ua-	.
!LO:TX:t=P:problem=kreska pseudotaktowa	!	!	!	!	!	!	!	!	!
1G\	-tor	.	.	1B\	-tor	.	1g\	-tor	.
=2-	=2-	=2-	=2-	=2-	=2-	=2-	=2-	=2-	=2-
1.C/	or-	.	.	1.c\	Or-	.	0g\	Or-	.
2D/	.	.	.	4B/	.	.	.	.	.
.	.	.	.	4A/	.	.	.	.	.
2E/	.	.	.	(2G/	-bis	.	1g\	-bis	.
!LO:TX:t=P:problem=kreska pseudotaktowa	!	!	!	!	!	!	!	!	!
2F/	.	.	.	2A/)	.	.	.	.	.
=3-	=3-	=3-	=3-	=3-	=3-	=3-	=3-	=3-	=3-
2G/	.	.	.	(2B/	or-	.	0g\	Or-	.
2GG/	-bis	.	.	2c/)	.	.	.	.	.
1.D\	or-	.	.	1.d\	.	.	.	.	.
.	.	.	.	.	.	.	1f#X\	-tus	.
*	*	*	*	*2\right	*	*	*	*	*
!LO:TX:t=P:problem=kreska pseudotaktowa	!	!	!	!	!	!	!	!	!
2D/	-tus	.	.	2d\	-tus	.	.	.	.
=4-	=4-	=4-	=4-	=4-	=4-	=4-	=4-	=4-	=4-
0.GG/	eſt	.	.	0.d\,<	eſt.	.	0.g\	eſt.	.
=5-	=5-	=5-	=5-	=5-	=5-	=5-	=5-	=5-	=5-
0G\	Ca-	.	.	0B\	Ca-	.	0g\	Ca-	.
!LO:TX:t=P:problem=kreska pseudotaktowa	!	!	!	!	!	!	!	!	!
1E\	-ro	.	.	1c#X\	-ro	.	1g\	-ro	.
=6-	=6-	=6-	=6-	=6-	=6-	=6-	=6-	=6-	=6-
0D\	De-	.	.	0d\	De-	.	0a\	De-	.
!LO:TX:t=P:problem=kreska pseudotaktowa	!	!	!	!	!	!	!	!	!
1A\	-us	.	.	1c#X\	-us	.	1a\	-us	.
=7-	=7-	=7-	=7-	=7-	=7-	=7-	=7-	=7-	=7-
1B-X\	iam	.	.	1d\	iam	.	1fny\	iam	.
1.A\	fa-	.	.	1.d\	fa-	.	1.a\	fa-	.
*2\right	*	*	*	*	*	*	*2\right	*	*
2A\	-ctus	.	.	2c#X\	-ctus	.	2a\	-ctus	.
=8-	=8-	=8-	=8-	=8-	=8-	=8-	=8-	=8-	=8-
*custos:D	*	*	*	*custos:d	*	*	*	*	*
!LO:TX:t=P:problem=kreska pseudotaktowa	!	!	!	!	!	!	!	!	!
0.D\	eſt	.	.	0.d\	eſt	.	0.f#X\	eſt	.
!LO:LB:g=original	!	!	!	!LO:LB:g=original	!	!	!	!	!
=9-	=9-	=9-	=9-	=9-	=9-	=9-	=9-	=9-	=9-
0D\	ca-	.	.	0d\	Ca-	.	0a\	Ca-	.
*	*	*	*	*	*	*	*custos:f	*	*
!LO:TX:t=P:problem=kreska pseudotaktowa	!	!	!	!	!	!	!	!	!
1AA/	-ro	.	.	1cny\	-ro	.	1a\	-ro	.
!	!	!	!	!	!	!	!LO:LB:g=original	!	!
=10-	=10-	=10-	=10-	=10-	=10-	=10-	=10-	=10-	=10-
0BB/	De-	.	.	0B\	De-	.	(2f#X\	De-	.
.	.	.	.	.	.	.	2e\)	.	.
.	.	.	.	.	.	.	(2f#\	-us	.
.	.	.	.	.	.	.	2g\)	.	.
!LO:TX:t=P:problem=kreska pseudotaktowa	!	!	!	!	!	!	!	!	!
1C/	-us	.	.	1A\	-us	.	1a\	i-	.
=11-	=11-	=11-	=11-	=11-	=11-	=11-	=11-	=11-	=11-
1D\	iam	.	.	1A\	iam	.	1fny\	-am	.
1.E\	fa-	.	.	1.A\	fa-	.	1.e\	fa-	.
!LO:TX:t=P:problem=kreska pseudotaktowa	!	!	!	!	!	!	!	!	!
2E\	-ctus	.	.	2G#X/	-ctus	.	2e\	-ct(us)	.
=12-	=12-	=12-	=12-	=12-	=12-	=12-	=12-	=12-	=12-
1AA/	eſt	.	.	1A\	eſt	.	1e\	eſt	.
1A\	iam	.	.	1A\	iam	.	1e\	iam	.
!LO:TX:t=P:problem=kreska pseudotaktowa	!	!	!	!	!	!	!	!	!
1r	.	.	.	1r	.	.	1r	.	.
=13-	=13-	=13-	=13-	=13-	=13-	=13-	=13-	=13-	=13-
1E\	iam	.	.	1c\	iam	.	1g\	iam	.
1.G\	fa-	.	.	1.c\	fa-	.	1.g\	fa-	.
!LO:TX:t=P:problem=kreska pseudotaktowa	!	!	!	!	!	!	!	!	!
2GG/	-ctus	.	.	2B\	-ctus	.	2g\	-ctus	.
=14-	=14-	=14-	=14-	=14-	=14-	=14-	=14-	=14-	=14-
!LO:TX:t=P:problem=kreska pseudotaktowa	!	!	!	!	!	!	!LO:N:vis=1.	!	!
0.C/	eſt	.	.	0.c\	eſt	.	0.e\	eſt	.
=15-	=15-	=15-	=15-	=15-	=15-	=15-	=15-	=15-	=15-
1C/	gau-	.	.	1e\	Gau-	.	1g\	gau-	.
1C/	-dent	.	.	1e\	-dent	.	1g\	-dent	.
!LO:TX:t=P:problem=kreska pseudotaktowa	!	!	!	!	!	!	!	!	!
1F\	in	.	.	1f\	in	.	1a\	in	.
=16-	=16-	=16-	=16-	=16-	=16-	=16-	=16-	=16-	=16-
0C/	a-	.	.	0e\	Cae-	.	0g\	a-	.
1D\	-stris	.	.	1d\	-lis	.	1f\	-ſtris	.
=17-	=17-	=17-	=17-	=17-	=17-	=17-	=17-	=17-	=17-
1.AA/	An-	.	.	1.c#X\	An-	.	1.e\	An-	.
*custos:AA	*	*	*	*	*	*	*	*	*
2AA/	-ge-	.	.	2c#\	-ge-	.	2e\	-ge-	.
*	*	*	*	*custos:f	*	*	*custos:a	*	*
!LO:LB:g=original	!	!	!	!	!	!	!	!	!
!LO:TX:t=P:problem=kreska pseudotaktowa	!	!	!	!	!	!	!	!	!
1AA/	-li	.	.	1c#\	-lis	.	1e\	-li	.
!	!	!	!	!LO:LB:g=original	!	!	!LO:LB:g=original	!	!
=18-	=18-	=18-	=18-	=18-	=18-	=18-	=18-	=18-	=18-
1FF/	in	.	.	1f\	in	.	1a\	in	.
1.BB-X/	ter-	.	.	1.d\	ter-	.	1.f\	ter-	.
!LO:TX:t=P:problem=kreska pseudotaktowa	!	!	!	!	!	!	!	!	!
2BB-/	-ris	.	.	2d\	-ris	.	2f\	-ris	.
=19-	=19-	=19-	=19-	=19-	=19-	=19-	=19-	=19-	=19-
0GG/	fit	.	.	0e\	fit	.	0g\	fit	.
1FF/	Lae-	.	.	1f\	lae-	.	1a\	lae-	.
=20-	=20-	=20-	=20-	=20-	=20-	=20-	=20-	=20-	=20-
0C/	-ti-	.	.	1f\	.	.	0g\	-ti-	.
.	.	.	.	2e\	.	.	.	.	.
.	.	.	.	2d\	.	.	.	.	.
!LO:TX:t=P:problem=kreska pseudotaktowa	!	!	!	!	!	!	!	!	!
1C/	-ti-	.	.	2.e\	-ti-	.	1g\	-ti-	.
.	.	.	.	4e\	-ti-	.	.	.	.
=21-	=21-	=21-	=21-	=21-	=21-	=21-	=21-	=21-	=21-
0FF/,<	-a	.	.	0f\,<	-a	.	0f\,<	-a	.
*	*ij	*	*	*	*ij	*	*	*	*
!LO:TX:t=P:problem=kreska pseudotaktowa	!	!	!	!	!	!	!	!	!
1FF/	in	.	.	1f\	in	.	1a\	in	.
=22-	=22-	=22-	=22-	=22-	=22-	=22-	=22-	=22-	=22-
1.AA/	ter-	.	.	1.c\	ter-	.	1.e\	ter-	.
2AA/	-ris	.	.	2d\	-ris	.	2f\	-ris	.
*col	*	*	*	*	*	*	*	*	*
0EE/	fit	.	.	1e\	fit	.	1g\	fit	.
=23-	=23-	=23-	=23-	=23-	=23-	=23-	=23-	=23-	=23-
.	.	.	.	1c\	lae-	.	1e\	lae-	.
0GG/	Lae-	.	.	1.c\	-ti-	.	1.d\	-ti-	.
.	.	.	.	2c\	-ti-	.	2d\	-ti-	.
*Xcol	*	*	*	*	*	*	*	*	*
=24-	=24-	=24-	=24-	=24-	=24-	=24-	=24-	=24-	=24-
1.C/	-ti-	.	.	0.c\,<	-a	.	0.e\,<	-a	.
*	*	*	*	*	*Xij	*	*	*	*
2C/	-ti-	.	.	.	.	.	.	.	.
!LO:TX:t=P:problem=kreska pseudotaktowa	!	!	!	!	!	!	!	!	!
1C/,<	-a	.	.	.	.	.	.	.	.
*	*Xij	*	*	*	*	*	*	*	*
=25-	=25-	=25-	=25-	=25-	=25-	=25-	=25-	=25-	=25-
1c\	gau-	.	.	1c\	Gau-	.	1e\	gau-	.
1c\	-dent	.	.	1c\	-dent	.	1e\	-dent	.
*	*	*	*	*custos:c	*	*	*	*	*
!LO:TX:t=P:problem=kreska pseudotaktowa	!	!	!	!	!	!	!	!	!
1F\	in	.	.	1c\	in	.	1f\	in	.
!	!	!	!	!LO:LB:g=original	!	!	!	!	!
=26-	=26-	=26-	=26-	=26-	=26-	=26-	=26-	=26-	=26-
0C/	cae-	.	.	0c\	Cae-	.	0e\	Cae-	.
*custos:AA	*	*	*	*	*	*	*custos:c	*	*
1D\,<	-lis	.	.	1A\	-lis	.	1d\	-lis	.
!	!	!	!	!	!	!	!LO:LB:g=original	!	!
=27-	=27-	=27-	=27-	=27-	=27-	=27-	=27-	=27-	=27-
1.AA/	An-	.	.	1.A\	An-	.	1.c#X\	An-	.
2AA/	-ge-	.	.	2A/	-ge-	.	2c#/	-ge-	.
!LO:TX:t=P:problem=kreska pseudotaktowa	!	!	!	!	!	!	!	!	!
1AA/	-li	.	.	1A\	-li	.	1c#\,<	-li	.
=28-	=28-	=28-	=28-	=28-	=28-	=28-	=28-	=28-	=28-
1FF/	in	.	.	1c\	in	.	1f\	in	.
1.BB-X/	ter-	.	.	1.B-X\	ter-	.	1d\	ter-	.
.	.	.	.	.	.	.	1d\	-ris	.
!LO:TX:t=P:problem=kreska pseudotaktowa	!	!	!	!	!	!	!	!	!
2BB-/	-ris	.	.	2B-\	-ris	.	.	.	.
=29-	=29-	=29-	=29-	=29-	=29-	=29-	=29-	=29-	=29-
0GG/	fit	.	.	0d\	fit	.	0g\	fit	.
1AA/	Lae-	.	.	1c\	lae-	.	1f\	lae-	.
=30-	=30-	=30-	=30-	=30-	=30-	=30-	=30-	=30-	=30-
*lig	*	*	*	*lig	*	*	*	*	*
1BB-X/	-ti-	.	.	1d\	-ti-	.	0f\	-ti-	.
1.C/	.	.	.	1.c\	.	.	.	.	.
.	.	.	.	.	.	.	1e\	-ti-	.
*Xlig	*	*	*	*Xlig	*	*	*	*	*
!LO:TX:t=P:problem=kreska pseudotaktowa	!	!	!	!	!	!	!	!	!
2C/	-ti-	.	.	2c\	-ti-	.	.	.	.
=31-	=31-	=31-	=31-	=31-	=31-	=31-	=31-	=31-	=31-
0FF/,<	-a	.	.	0c\,<	-a	.	0f\,<	-a	.
*	*ij	*	*	*	*	*	*	*	*
!LO:TX:t=P:problem=kreska pseudotaktowa	!	!	!	!	!	!	!	!	!
1F\	in	.	.	1c\	in	.	1f\	in	.
=32-	=32-	=32-	=32-	=32-	=32-	=32-	=32-	=32-	=32-
1.A\	ter-	.	.	1.c\	ter-	.	1.e\	ter-	.
2A\	-ris	.	.	2c\	-ris	.	2e\	-ris	.
!LO:TX:t=P:problem=kreska pseudotaktowa	!	!	!	!	!	!	!	!	!
1E\	fit	.	.	1c\	fit	.	1e\	fit	.
=33-	=33-	=33-	=33-	=33-	=33-	=33-	=33-	=33-	=33-
1E\	Lae-	.	.	1c\	lae-	.	1g\	lae-	.
1.G\	-ti-	.	.	1.c\	-ti-	.	1.g\	-ti-	.
2G\	-ti-	.	.	2Bny\	-ti-	.	2g\	-ti-	.
=34-	=34-	=34-	=34-	=34-	=34-	=34-	=34-	=34-	=34-
*custos:C	*	*	*	*	*	*	*	*	*
!LO:TX:t=P:problem=podwojna kreska pseudotaktowa	!	!	!	!	!	!	!	!	!
!LO:TX:t=P:problem=fragment wykreślony	!	!	!	!	!	!	!	!	!
0.C/	-a	.	.	0.c\	-a	.	0.e\	-a	.
*	*Xij	*	*	*	*	*	*	*	*
!LO:LB:g=original	!	!	!	!LO:LB:g=original	!	!	!	!	!
=35-	=35-	=35-	=35-	=35-	=35-	=35-	=35-	=35-	=35-
1c\	I-	.	.	1c\	I-	.	1e\	I-	.
*	*	*	*	*	*	*	*custos:g	*	*
1A\	-rae	.	.	1c\	-rae	.	1e\	-rae	.
!LO:TX:t=P:problem=kreska pseudotaktowa	!	!	!	!	!	!	!LO:LB:g=original	!	!
1G\	Ma-	.	.	1B\	ma-	.	1g\	Ma-	.
=36-	=36-	=36-	=36-	=36-	=36-	=36-	=36-	=36-	=36-
1.C/	-lo-	.	.	1.c\	-lo-	.	0g\	-lo-	.
2D/	.	.	.	4B/	.	.	.	.	.
.	.	.	.	4A/	.	.	.	.	.
2E\	.	.	.	(2Gny/	.	.	1g\	-rum	.
!LO:TX:t=P:problem=kreska pseudotaktowa	!	!	!	!	!	!	!	!	!
2F\	.	.	.	2A/)	.	.	.	.	.
=37-	=37-	=37-	=37-	=37-	=37-	=37-	=37-	=37-	=37-
2G\	.	.	.	(2B/	-rum	.	0g\	Vin-	.
2GG/	-rum	.	.	2c/)	.	.	.	.	.
1.D\	Vin-	.	.	1.d\	Vin-	.	.	.	.
.	.	.	.	.	.	.	1f#X\	-di-	.
!LO:TX:t=P:problem=kreska pseudotaktowa	!	!	!	!	!	!	!	!	!
2D/	-di-	.	.	2d\	-di-	.	.	.	.
=38-	=38-	=38-	=38-	=38-	=38-	=38-	=38-	=38-	=38-
!LO:TX:t=P:problem=kreska pseudotaktowa	!	!	!	!	!	!	!	!	!
0.GG/	-ces	.	.	0.d\	-ces	.	0.g\,<	-ces	.
=39-	=39-	=39-	=39-	=39-	=39-	=39-	=39-	=39-	=39-
0G\	ceſ-	.	.	0B\	ce-	.	0g\	ceſ-	.
!LO:TX:t=P:problem=kreska pseudotaktowa	!	!	!	!	!	!	!	!	!
1E\	-sant	.	.	1c#X\	-ßa(n)t	.	1g\	-sa(n)t	.
=40-	=40-	=40-	=40-	=40-	=40-	=40-	=40-	=40-	=40-
0D\	re-	.	.	0d\	re-	.	0a\	re-	.
!LO:TX:t=P:problem=kreska pseudotaktowa	!	!	!	!	!	!	!	!	!
1A\	-dit	.	.	1c#X\	-dit	.	1a\	-dit	.
=41-	=41-	=41-	=41-	=41-	=41-	=41-	=41-	=41-	=41-
1B-X\	cle-	.	.	1d\	cle-	.	1fny\	cle-	.
1.A\	-men-	.	.	1.d\	-men-	.	1.a\	-men-	.
*custos:D	*	*	*	*	*	*	*	*	*
!LO:TX:t=P:problem=kreska pseudotaktowa	!	!	!	!	!	!	!	!	!
2A\	-ti	.	.	2c#X\	-ti-	.	2a\	-ti-	.
!LO:LB:g=original	!	!	!	!	!	!	!	!	!
=42-	=42-	=42-	=42-	=42-	=42-	=42-	=42-	=42-	=42-
*	*	*	*	*custos:d	*	*	*	*	*
!LO:TX:t=P:problem=kreska pseudotaktowa	!	!	!	!	!	!	!	!	!
0.D\	a	.	.	0.d\	-a	.	0.f#X\,<	-a	.
!LO:LB:g=original	!	!	!	!LO:LB:g=original	!	!	!	!	!
=43-	=43-	=43-	=43-	=43-	=43-	=43-	=43-	=43-	=43-
0D\	ceſ-	.	.	0d\	ceſ-	.	0a\	ceſ-	.
!LO:TX:t=P:problem=kreska pseudotaktowa	!	!	!	!	!	!	!	!	!
1AA/	-sant	.	.	1cny\	-sa(n)t	.	1a\	-sa(n)t	.
=44-	=44-	=44-	=44-	=44-	=44-	=44-	=44-	=44-	=44-
!LO:TX:t=P:problem=♮ above	!	!	!	!	!	!	!	!	!
0BBn/	re-	.	.	0B\	re-	.	(2f#X\	re-	.
.	.	.	.	.	.	.	2e\)	.	.
.	.	.	.	.	.	.	(2f#\	.	.
.	.	.	.	.	.	.	2g\)	.	.
!LO:TX:t=P:problem=kreska pseudotaktowa	!	!	!	!	!	!	!	!	!
1C/	-dit	.	.	1A\	-dit	.	1a\	-dit	.
=45-	=45-	=45-	=45-	=45-	=45-	=45-	=45-	=45-	=45-
*	*	*	*	*	*	*	*custos:e	*	*
1D\	cle-	.	.	1A\	cle-	.	1fny\	cle-	.
!	!	!	!	!	!	!	!LO:LB:g=original	!	!
1.E\	-men-	.	.	1.A\	-men-	.	1.e\	-men-	.
!LO:TX:t=P:problem=kreska pseudotaktowa	!	!	!	!	!	!	!	!	!
2E\	-ti-	.	.	2G#X/	-ti-	.	2e\	-ti-	.
=46-	=46-	=46-	=46-	=46-	=46-	=46-	=46-	=46-	=46-
1AA/	-a	.	.	1A\,<	-a	.	1e\,<	-a	.
1A\	fit	.	.	1A\	fit	.	1e\	fit	.
!LO:TX:t=P:problem=kreska pseudotaktowa	!	!	!	!	!	!	!	!	!
1r	.	.	.	1r	.	.	1r	.	.
=47-	=47-	=47-	=47-	=47-	=47-	=47-	=47-	=47-	=47-
1E\	Lae-	.	.	1c\	lae-	.	1g\	lae-	.
1.G\	-ti-	.	.	1.c\	-ti-	.	1.g\	-ti-	.
!LO:TX:t=P:problem=kreska pseudotaktowa	!	!	!	!	!	!	!	!	!
2GG/	-ti-	.	.	2B\	-ti-	.	2g\	-ti-	.
=48-	=48-	=48-	=48-	=48-	=48-	=48-	=48-	=48-	=48-
!LO:TX:t=P:problem=kreska pseudotaktowa	!	!	!	!	!	!	!	!	!
0.C/	-a	.	.	0.c\	-a	.	0.e\	-a	.
=49-	=49-	=49-	=49-	=49-	=49-	=49-	=49-	=49-	=49-
1c\	Gau-	.	.	1e\	Gau-	.	1g\	Gau-	.
1c\	-dent	.	.	1e\	-dent	.	1g\	-dent	.
!LO:TX:t=P:problem=kreska pseudotaktowa	!	!	!	!	!	!	!	!	!
1F\	in	.	.	1f\	in	.	1a\	in	.
=50-	=50-	=50-	=50-	=50-	=50-	=50-	=50-	=50-	=50-
0C/	cae-	.	.	0e\	Cae-	.	0g\	Cae-	.
*	*	*	*	*custos:c	*	*	*	*	*
1D\	-lis	.	.	1d\	-lis	.	1f\	-lis	.
!	!	!	!	!LO:LB:g=original	!	!	!	!	!
=51-	=51-	=51-	=51-	=51-	=51-	=51-	=51-	=51-	=51-
1.AA/	An-	.	.	1.c\	An-	.	1.e\	An-	.
2AA/	-ge-	.	.	2c\	-ge-	.	2e\	-ge-	.
*custos:FF	*	*	*	*	*	*	*	*	*
!LO:TX:t=P:problem=kreska pseudotaktowa	!	!	!	!	!	!	!	!	!
1AA/	-li	.	.	1c\,<	-li	.	1e\,<	-li	.
!LO:LB:g=original	!	!	!	!	!	!	!	!	!
=52-	=52-	=52-	=52-	=52-	=52-	=52-	=52-	=52-	=52-
1FF/	in	.	.	1f\	in	.	1a\	in	.
1.BB-X/	ter-	.	.	1.d\	ter-	.	1.f\	ter-	.
!LO:TX:t=P:problem=kreska pseudotaktowa	!	!	!	!	!	!	!	!	!
2BB-/	-ris	.	.	2d\	-ris	.	2f\	-ris	.
=53-	=53-	=53-	=53-	=53-	=53-	=53-	=53-	=53-	=53-
0GG/	fit	.	.	0e\	fit	.	0g\	fit	.
!LO:TX:t=P:problem=kreska pseudotaktowa	!	!	!	!	!	!	!	!	!
1AA/	lae-	[[cle-	.	1f\	lae-	.	1a\	lae-	.
=54-	=54-	=54-	=54-	=54-	=54-	=54-	=54-	=54-	=54-
*lig	*	*	*	*	*	*	*	*	*
1BB-X/	-ti-	-men-	.	1f\	-ti-	.	0g\	-ti-	.
1.C/	.	.	.	2e\	.	.	.	.	.
.	.	.	.	2d\	.	.	.	.	.
.	.	.	.	2.e\	.	.	1g\	-ti-	.
*Xlig	*	*	*	*	*	*	*	*	*
!LO:TX:t=P:problem=kreska pseudotaktowa	!	!	!	!	!	!	!	!	!
2C/	-ti-	-ti-	.	.	.	.	.	.	.
.	.	.	.	4e\	-ti-	.	.	.	.
=55-	=55-	=55-	=55-	=55-	=55-	=55-	=55-	=55-	=55-
0FF/	-a	-a]]	.	0f\,<	-a	.	0f\,<	-a	.
!LO:TX:t=P:problem=kreska pseudotaktowa	!	!	!	!	!	!	!	!	!
1F\	in	.	.	1f\	in	.	1a\	in	.
=56-	=56-	=56-	=56-	=56-	=56-	=56-	=56-	=56-	=56-
1.A\	ter-	.	.	1.c\	ter-	.	1.e\	ter-	.
2A\	-ris	.	.	2d\	-ris	.	2f\	-ris	.
!LO:TX:t=P:problem=kreska pseudotaktowa	!	!	!	!	!	!	!	!	!
1E\	fit	.	.	1e\	fit	.	1g\	fit	.
=57-	=57-	=57-	=57-	=57-	=57-	=57-	=57-	=57-	=57-
1E\	lae-	.	.	1c\	lae-	.	1e\	lae-	.
1.G\	-ti-	.	.	1.c\	-ti-	.	1.d\	-ti-	.
2G\	-ti-	.	.	2B\	-ti-	.	2d\	-ti-	.
=58-	=58-	=58-	=58-	=58-	=58-	=58-	=58-	=58-	=58-
!LO:TX:t=P:problem=podwojna kreska pseudotaktowa	!	!	!	!	!	!	!	!	!
0.C/;	-a	.	.	0.c\	-a	.	0.e\	-a	.
!	!	!	!	!LO:LB:g=original	!	!	!	!	!
=59-	=59-	=59-	=59-	=59-	=59-	=59-	=59-	=59-	=59-
1c\	Le-	.	.	1c\	Le-	.	1e\	Le-	.
1A\	-thae	.	.	1c\	-thae	.	1e\	-thae	.
*custos:C	*	*	*	*	*	*	*	*	*
!LO:TX:t=P:problem=kreska pseudotaktowa	!	!	!	!	!	!	!	!	!
1G\	a	.	.	1B\	a	.	1g\	a	.
!LO:LB:g=original	!	!	!	!	!	!	!	!	!
=60-	=60-	=60-	=60-	=60-	=60-	=60-	=60-	=60-	=60-
1.C/	mon-	.	.	1.c\	mon-	.	0g\	mon-	.
2D/	.	.	.	4B/	.	.	.	.	.
.	.	.	.	4A/	.	.	.	.	.
2E/	.	.	.	(2Gny/	.	.	1g\	-ſtra	.
!LO:TX:t=P:problem=kreska pseudotaktowa	!	!	!	!	!	!	!	!	!
2F\	.	.	.	2A/)	.	.	.	.	.
=61-	=61-	=61-	=61-	=61-	=61-	=61-	=61-	=61-	=61-
2G\	.	.	.	(2B/	-ſtra	.	0g\	cor-	.
2GG/	-ſtra	.	.	2c/)	.	.	.	.	.
1.D\	cer-	.	.	1.d\	cor-	.	.	.	.
.	.	.	.	.	.	.	1f#X\	.	.
!LO:TX:t=P:problem=kreska pseudotaktowa	!	!	!	!	!	!	!	!	!
2D/	-ru-	.	.	2d\	-ru-	.	.	.	.
=62-	=62-	=62-	=62-	=62-	=62-	=62-	=62-	=62-	=62-
*	*	*	*	*	*	*	*custos:g	*	*
!LO:TX:t=P:problem=kreska pseudotaktowa	!	!	!	!	!	!	!	!	!
0.GG/	-[u]nt	.	.	0.d\	-unt	.	0.g\	-runt.	.
!	!	!	!	!	!	!	!	!LO:LB:g=original	!
=63-	=63-	=63-	=63-	=63-	=63-	=63-	=63-	=63-	=63-
1G\	Na-	.	.	1B\	Na-	.	0g\	Na-	.
1G\	-ſcen-	.	.	1B\	-scen-	.	.	.	.
!LO:TX:t=P:problem=kreska pseudotaktowa	!	!	!	!	!	!	!	!	!
1E\	-te	.	.	1c#X\	-te	.	1g\	-scen-	.
=64-	=64-	=64-	=64-	=64-	=64-	=64-	=64-	=64-	=64-
0D\	Ie-	.	.	0d\	Ie-	.	0a\	-te	.
!LO:TX:t=P:problem=kreska pseudotaktowa	!	!	!	!	!	!	!	!	!
1A\	-su	.	.	1c#X\	.	.	1a\	Ie-	.
=65-	=65-	=65-	=65-	=65-	=65-	=65-	=65-	=65-	=65-
1B-X\	par-	.	.	1d\	-su	.	1fny\	-ſu	.
1.A\	.	.	.	1.d\	par-	.	1.a\	par-	.
2A\	-cu-	.	.	2c#X\	-cu-	.	2a\	-cu-	.
=66-	=66-	=66-	=66-	=66-	=66-	=66-	=66-	=66-	=66-
*	*	*	*	*custos:d	*	*	*	*	*
!LO:TX:t=P:problem=kreska pseudotaktowa	!	!	!	!	!	!	!	!	!
0.D\	-lo	.	.	0.d\	-lo	.	0.f#X\	-lo	.
!	!	!	!	!LO:LB:g=original	!	!	!	!	!
=67-	=67-	=67-	=67-	=67-	=67-	=67-	=67-	=67-	=67-
0D\	DE-	.	.	0d\	De-	.	0a\	De-	.
!LO:TX:t=P:problem=kreska pseudotaktowa	!	!	!	!	!	!	!	!	!
1AA/	-us	.	.	1cny\	-us	.	1a\	-us	.
=68-	=68-	=68-	=68-	=68-	=68-	=68-	=68-	=68-	=68-
0BBn/	ho-	.	.	0B\	Ho-	.	(2f#X\	Ho-	.
.	.	.	.	.	.	.	2e\)	.	.
.	.	.	.	.	.	.	(2f#\	.	.
.	.	.	.	.	.	.	2g\)	.	.
*custos:D	*	*	*	*	*	*	*	*	*
1C/	-mo	.	.	1A\	-mo	.	1a\	-mo	.
!LO:PB:g=original	!	!	!	!	!	!	!	!	!
=69-	=69-	=69-	=69-	=69-	=69-	=69-	=69-	=69-	=69-
(1D\	iam	.	.	1A\	ia(m)	.	1f\	ia(m)	.
1.E\)	fa-	.	.	1.A\	fa-	.	1.e\	fa-	.
!LO:TX:t=P:problem=kreska pseudotaktowa	!	!	!	!	!	!	!	!	!
2E\	-ctus	.	.	2G#X/	-ctus	.	2e\	-ctus	.
=70-	=70-	=70-	=70-	=70-	=70-	=70-	=70-	=70-	=70-
1AA/,<	eſt	.	.	1A\	eſt	.	1e\,<	eſt	.
1A\	iam	.	.	1A\	iam	.	1e\	iam	.
*	*	*	*	*	*	*	*custos:g	*	*
!LO:TX:t=P:problem=kreska pseudotaktowa	!	!	!	!	!	!	!	!	!
1r	.	.	.	1r	.	.	1r	.	.
!	!	!	!	!	!	!	!LO:LB:g=original	!	!
=71-	=71-	=71-	=71-	=71-	=71-	=71-	=71-	=71-	=71-
1E\	iam	.	.	1c\	iam	.	1g\	ia(m)	.
1.G\	fa-	.	.	1.c\	fa-	.	1.g\	fa-	.
2GG/	-ctus	.	.	2B\	-ctus	.	2g\	-ctus	.
=72-	=72-	=72-	=72-	=72-	=72-	=72-	=72-	=72-	=72-
!LO:TX:t=P:problem=kreska pseudotaktowa	!	!	!	!	!	!	!	!	!
0.C/	eſt	.	.	0.c\	eſt	.	0.e\	eſt	.
=73-	=73-	=73-	=73-	=73-	=73-	=73-	=73-	=73-	=73-
1C/	gau-	.	.	1c\	Gau-	.	1e\	Gau-	.
1C/	-dent	.	.	1c\	-dent	.	1e\	-dent	.
!LO:TX:t=P:problem=kreska pseudotaktowa	!	!	!	!	!	!	!	!	!
1F\	in	.	.	1c\	in	.	1f\	in	.
=74-	=74-	=74-	=74-	=74-	=74-	=74-	=74-	=74-	=74-
0C/	cae-	.	.	0c\	Cae-	.	0e\	Cae-	.
*	*	*	*	*custos:G	*	*	*	*	*
!LO:TX:t=P:problem=kreska pseudotaktowa	!	!	!	!	!	!	!	!	!
1D\	-lis	.	.	1A\	-lis	.	1d\	-lis	.
!	!	!	!	!LO:PB:g=original	!	!	!	!	!
=75-	=75-	=75-	=75-	=75-	=75-	=75-	=75-	=75-	=75-
1.AA/	An-	.	.	1.A\	an-	.	1.c#X\	an-	.
2AA/	-ge-	.	.	2A/	-ge-	.	2c#/	-ge-	.
!LO:TX:t=P:problem=kreska pseudotaktowa	!	!	!	!	!	!	!	!	!
1AA/	-li	.	.	1A\,<	-li	.	1c#\,<	-li	.
=76-	=76-	=76-	=76-	=76-	=76-	=76-	=76-	=76-	=76-
1FF/	in	.	.	1c\	in	.	1f\	in	.
1.BB-X/	ter-	.	.	1.B-X\	ter-	.	1d\	ter-	.
.	.	.	.	.	.	.	1d\	-ris	.
*custos:GG	*	*	*	*	*	*	*	*	*
2BB-/	-ris	.	.	2B-\	-ris	.	.	.	.
!LO:LB:g=original	!	!	!	!	!	!	!	!	!
=77-	=77-	=77-	=77-	=77-	=77-	=77-	=77-	=77-	=77-
0GG/	fit	.	.	0d\	fit	.	0g\	fit	.
1FF/	lae-	.	.	1c\	lae-	.	1f\	lae-	.
=78-	=78-	=78-	=78-	=78-	=78-	=78-	=78-	=78-	=78-
*	*	*	*	*lig	*	*	*	*	*
0C/	-ti-	.	.	1d\	ti-	.	0f\	-ti-	.
.	.	.	.	1.c\	.	.	.	.	.
!LO:TX:t=P:problem=kreska pseudotaktowa	!	!	!	!	!	!	!	!	!
1C/	-ti-	.	.	.	.	.	1e\	-ti-	.
*	*	*	*	*Xlig	*	*	*	*	*
.	.	.	.	2c\	-ti-	.	.	.	.
=79-	=79-	=79-	=79-	=79-	=79-	=79-	=79-	=79-	=79-
0FF/,<	-a	.	.	0c\,<	-a	.	0f\,<	-a	.
*	*	*	*	*	*	*	*custos:e	*	*
*	*ij	*	*	*	*	*	*	*	*
1FF/	in	.	.	1c\	in	.	1f\	in	.
!	!	!	!	!	!	!	!LO:PB:g=original	!	!
=80-	=80-	=80-	=80-	=80-	=80-	=80-	=80-	=80-	=80-
1.AA/	ter-	.	.	1.c\	ter-	.	1.e\	ter-	.
2AA/	-ris	.	.	2c\	-ris	.	2e\	-ris	.
*col	*	*	*	*	*	*	*	*	*
0EE/	fit	.	.	1c\	fit	.	1e\	fit	.
=81-	=81-	=81-	=81-	=81-	=81-	=81-	=81-	=81-	=81-
.	.	.	.	1c\	lae-	.	1g\	lae-	.
0GG/	lae-	.	.	1.c\	-ti-	.	1.g\	-ti-	.
.	.	.	.	2Bny\	-ti-	.	2g\	-ti-	.
*Xcol	*	*	*	*	*	*	*	*	*
=82-	=82-	=82-	=82-	=82-	=82-	=82-	=82-	=82-	=82-
1.C/	-ti-	.	.	0.c\	-a	.	0.e\	-a	.
2C/	-ti-	.	.	.	.	.	.	.	.
!LO:TX:t=P:problem=kreska pseudotaktowa	!	!	!	!	!	!	!	!	!
1C/	-a	.	.	.	.	.	.	.	.
*	*Xij	*	*	*	*	*	*	*	*
!	!	!	!	!LO:LB:g=original	!	!	!	!	!
=83-	=83-	=83-	=83-	=83-	=83-	=83-	=83-	=83-	=83-
1C/	Tri-	.	.	1c\	Tri-	.	1e\	Tri-	.
1AA/	-no	.	.	1c\	-no	.	1e\	-no	.
!LO:TX:t=P:problem=kreska pseudotaktowa	!	!	!	!	!	!	!	!	!
1GG#X/	so-	.	.	1B\	so-	.	1e\	So-	.
=84-	=84-	=84-	=84-	=84-	=84-	=84-	=84-	=84-	=84-
0AA/	-nan-	.	.	0A\	-nan-	.	0e\	-nan-	.
!LO:TX:t=P:problem=kreska pseudotaktowa	!	!	!	!	!	!	!	!	!
1F\	-ti	.	.	1A\	-ti	.	1d\	-ti	.
=85-	=85-	=85-	=85-	=85-	=85-	=85-	=85-	=85-	=85-
1.E\	ma-	.	.	1.G#X/	ma-	.	1.e\	ma-	.
2E\	-xi-	.	.	2G#/	-xi-	.	2e\	-xi-	.
*custos:C	*	*	*	*	*	*	*	*	*
1E\	-mo	.	.	1G#/	-mo	.	1e\	-mo	.
!LO:LB:g=original	!	!	!	!	!	!	!	!	!
=86-	=86-	=86-	=86-	=86-	=86-	=86-	=86-	=86-	=86-
1C/	lau-	.	.	1c\	lau-	.	1g\	lau-	.
1C/	-des	.	.	1c\	-des	.	1g\	-des	.
!LO:TX:t=P:problem=kreska pseudotaktowa	!	!	!	!	!	!	!	!	!
1GGny/	ca-	.	.	1B\	ca-	.	1g\	ca-	.
=87-	=87-	=87-	=87-	=87-	=87-	=87-	=87-	=87-	=87-
2AA/	-na-	.	.	0A\	-na-	.	0.e\	-na-	.
2BBny/	.	.	.	.	.	.	.	.	.
2C/	.	.	.	.	.	.	.	.	.
2D/	.	.	.	.	.	.	.	.	.
!LO:TX:t=P:problem=kreska pseudotaktowa	!	!	!	!	!	!	!	!	!
1E\	.	.	.	1G#X/	.	.	.	.	.
!	!	!	!	!	!	!	!LO:LB:g=original	!	!
=88-	=88-	=88-	=88-	=88-	=88-	=88-	=88-	=88-	=88-
1C/,<	mus	.	.	1A\	-mus	.	1e\	-mus	.
1.E\	iu-	.	.	1.A\	iu-	.	1.e\	iu-	.
!LO:TX:t=P:problem=kreska pseudotaktowa	!	!	!	!	!	!	!	!	!
2E\	-gi-	.	.	2G#y/	-gi-	.	2e\	-gi-	.
=89-	=89-	=89-	=89-	=89-	=89-	=89-	=89-	=89-	=89-
!LO:TX:t=P:problem=kreska pseudotaktowa	!	!	!	!	!	!	!	!	!
0.AA/	-ter	.	.	0.A\	-ter	.	0.e\	-ter	.
=90-	=90-	=90-	=90-	=90-	=90-	=90-	=90-	=90-	=90-
1A\	Lau-	.	.	1A\	lau-	.	1e\	lau-	.
1E\	-des	.	.	1Gny/	-des	.	1e\	-des	.
*	*	*	*	*custos:E	*	*	*	*	*
!LO:TX:t=P:problem=kreska pseudotaktowa	!	!	!	!	!	!	!	!	!
1F\	ca-	.	.	1F/	ca-	.	1cny\	ca-	.
!	!	!	!	!LO:LB:g=original	!	!	!	!	!
=91-	=91-	=91-	=91-	=91-	=91-	=91-	=91-	=91-	=91-
1.C/	-na-	.	.	1E/	-na-	.	0e\	-na-	.
.	.	.	.	2e\	.	.	.	.	.
2BB/	.	.	.	2d\	.	.	.	.	.
!LO:TX:t=P:problem=kreska pseudotaktowa	!	!	!	!	!	!	!	!	!
1AA/	.	.	.	1c\	.	.	(2e\	.	.
.	.	.	.	.	.	.	2f#X\)	.	.
=92-	=92-	=92-	=92-	=92-	=92-	=92-	=92-	=92-	=92-
1BB/,<	-mus	.	.	1d\	-mus	.	2g\	.	.
.	.	.	.	.	.	.	2g\	-mus	.
1.D\	iu-	.	.	1.d\	iu-	.	1.g\	iu-	.
2D/	-gi-	.	.	2d\	-gi-	.	2f#X\	-gi-	.
=93-	=93-	=93-	=93-	=93-	=93-	=93-	=93-	=93-	=93-
!LO:TX:t=P:problem=kreska pseudotaktowa	!	!	!	!	!	!	!	!	!
0.GG/	-ter	.	.	0.d\	-ter	.	0.g\	-ter	.
!LO:LB:g=original	!	!	!	!	!	!	!	!	!
=94-	=94-	=94-	=94-	=94-	=94-	=94-	=94-	=94-	=94-
1G\	gau-	.	.	1B\	Gau-	.	1d\	Gau-	.
1F\	-dent	.	.	1c\	-dent	.	1fny\	-dent	.
!LO:TX:t=P:problem=kreska pseudotaktowa	!	!	!	!	!	!	!	!	!
1D\	in	.	.	1d\	in	.	1f\	in	.
=95-	=95-	=95-	=95-	=95-	=95-	=95-	=95-	=95-	=95-
1.A\	a-	.	.	1.e\	A-	.	0a\	A-	.
2Bny\	.	.	.	2d\	.	.	.	.	.
*	*	*	*	*	*	*	*custos:a	*	*
!LO:TX:t=P:problem=kreska pseudotaktowa	!	!	!	!	!	!	!	!	!
1c\	.	.	.	1c\	.	.	1g\	-stris	.
!	!	!	!	!	!	!	!LO:LB:g=original	!	!
=96-	=96-	=96-	=96-	=96-	=96-	=96-	=96-	=96-	=96-
*	*	*	*	*	*	*	*lig	*	*
1F\	-stris	.	.	1c\	-ſtris	.	1a\	An-	.
1.G\	An-	.	.	1.c\	An-	.	1.g\	.	.
*	*	*	*	*	*	*	*Xlig	*	*
2G\	-ge-	.	.	2B\	-ge-	.	2g\	-ge-	.
=97-	=97-	=97-	=97-	=97-	=97-	=97-	=97-	=97-	=97-
0C/,<	-li	.	.	0c\	-li	.	0g\,<	-li	.
!LO:TX:t=P:problem=kreska pseudotaktowa	!	!	!	!	!	!	!	!	!
1C/	in	.	.	1c\	in	.	1e\	in	.
=98-	=98-	=98-	=98-	=98-	=98-	=98-	=98-	=98-	=98-
*	*	*	*	*custos:c	*	*	*	*	*
0.FF/	ter-	.	.	0.c\	ter-	.	2f\	ter-	.
.	.	.	.	.	.	.	2e\	.	.
.	.	.	.	.	.	.	2f\	.	.
.	.	.	.	.	.	.	2e\	.	.
.	.	.	.	.	.	.	4f\	.	.
.	.	.	.	.	.	.	4d\	.	.
.	.	.	.	.	.	.	4e\	.	.
.	.	.	.	.	.	.	4f\	.	.
!	!	!	!	!LO:LB:g=original	!	!	!	!	!
=99-	=99-	=99-	=99-	=99-	=99-	=99-	=99-	=99-	=99-
!	!	!	!LO:DY:a	!	!	!	!	!	!
1C/	.	.	p	0c\	-ris	.	1e\	.	.
1C/,<	-ris	.	.	.	.	.	1e\	-ris	.
*	*	*	*	*	*	*below	*	*	*below
!LO:TX:t=P:problem=kreska pseudotaktowa	!	!	!	!	!	!	!	!	!
1C/	in-	.	.	1c\	in	p	1e\	in	p
=100-	=100-	=100-	=100-	=100-	=100-	=100-	=100-	=100-	=100-
!LO:TX:t=P:problem=kreska pseudotaktowa	!	!	!	!	!	!	!	!	!
0.FF/	-ter-	.	.	0.c\	ter-	.	2f\	ter-	.
.	.	.	.	.	.	.	2e\	.	.
.	.	.	.	.	.	.	2f\	.	.
.	.	.	.	.	.	.	2e\	.	.
.	.	.	.	.	.	.	4f\	.	.
.	.	.	.	.	.	.	4d\	.	.
.	.	.	.	.	.	.	4e\	.	.
.	.	.	.	.	.	.	4f\	.	.
=101-	=101-	=101-	=101-	=101-	=101-	=101-	=101-	=101-	=101-
1C/,<	.	.	.	0c\	-ris	.	1.e\	.	.
1C/,<	-ris	.	f	.	.	.	.	.	.
.	.	.	.	.	.	.	2e\	-ris	.
*custos:BB	*	*	*	*	*	*	*custos:g	*	*
!	!	!	!LO:DY:a	!	!	!	!	!	!
1AA/	fit	.	.	1e\	fit	.	1f#X\	fit	f
!LO:LB:g=original	!	!	!	!	!	!	!LO:LB:g=original	!	!
=102-	=102-	=102-	=102-	=102-	=102-	=102-	=102-	=102-	=102-
1BB/	lae-	.	.	1d\	lae-	f	1g\	lae-	.
1.D\	-ti-	.	.	1.d\	-ti-	.	1.g\	-ti-	.
!LO:TX:t=P:problem=kreska pseudotaktowa	!	!	!	!	!	!	!	!	!
2D/	-ti-	.	.	2d\	-ti-	.	2f#X\	-ti-	.
=103-	=103-	=103-	=103-	=103-	=103-	=103-	=103-	=103-	=103-
0GG/	-a	.	.	0d\,<	-a	.	0g\	-a	.
!LO:TX:t=P:problem=kreska pseudotaktowa	!	!	!	!	!	!	!	!	!LO:DY:t=p
1AA/	fit	.	.	1c\	fit	.	1e\	fit	p
=104-	=104-	=104-	=104-	=104-	=104-	=104-	=104-	=104-	=104-
!	!	!	!LO:DY:a:t=p	!	!	!	!	!	!
1BB/	lae-	.	p	1d\	lae-	p	1g\	lae-	.
1.D\	-ti-	.	.	1.d\	-ti-	.	1.g\	-ti-	.
!LO:TX:t=P:problem=kreska pseudotaktowa	!	!	!	!	!	!	!	!	!
2D/	-ti-	.	.	2d\	-ti-	.	2f#X\	-ti-	.
=105-	=105-	=105-	=105-	=105-	=105-	=105-	=105-	=105-	=105-
0GG/	-a	.	.	0d\	-a	.	0g\	-a	.
!	!	!	!	!	!	!	!	!	!LO:DY:t=f
*	*	*	*below	*	*	*	*	*	*
!LO:TX:t=P:problem=kreska pseudotaktowa	!	!	!	!	!	!	!	!	!
1G\	in-	.	.	1B\	in	f	1d\	in	f
=106-	=106-	=106-	=106-	=106-	=106-	=106-	=106-	=106-	=106-
!	!	!	!LO:DY:rj	!	!	!	!	!	!
1.F\	-ter-	.	f	1.c\	ter-	.	1fny\	ter-	.
.	.	.	.	.	.	.	1f\	-ris	.
2G\	-ris	.	.	2c\	-ris	.	.	.	.
!LO:TX:t=P:problem=kreska pseudotaktowa	!	!	!	!	!	!	!	!	!
1A\	fit	.	.	1c\	fit	.	1e\	fit	.
=107-	=107-	=107-	=107-	=107-	=107-	=107-	=107-	=107-	=107-
1E\	lae-	.	.	1c\	lae-	.	1g\	lae-	.
1.G\	-te-	.	.	1.c\	-ti-	.	1.g\	-ti-	.
*	*	*	*	*custos:c	*	*	*	*	*
!LO:TX:t=P:problem=kreska pseudotaktowa	!	!	!	!	!	!	!	!	!
2G\	-ti-	.	.	2B\	-ti-	.	2g\	-ti-	.
!	!	!	!	!LO:LB:g=original	!	!	!	!	!
=108-	=108-	=108-	=108-	=108-	=108-	=108-	=108-	=108-	=108-
0C/	-a	.	.	0c\	-a	.	0e\	-a	.
*custos:F	*	*	*	*	*	*	*custos:f	*	*
1G\	in	.	p	1B\	in	p	1d\	in	p
!LO:LB:g=original	!	!	!	!	!	!	!LO:LB:g=original	!	!
=109-	=109-	=109-	=109-	=109-	=109-	=109-	=109-	=109-	=109-
1.F\	ter-	.	.	1.c\	ter-	.	1.f\	ter-	.
2G\	-ris	.	.	2c\	-ris	.	2f\	-ris	.
!LO:TX:t=P:problem=kreska pseudotaktowa	!	!	!	!	!	!	!	!	!
1A\	fit	.	.	1c\	fit	.	1e\	fit	.
=110-	=110-	=110-	=110-	=110-	=110-	=110-	=110-	=110-	=110-
1E\	lae-	.	.	1c\	lae-	.	1g\	lae-	.
1.G\	-ti-	.	.	1.c\	-ti-	.	1.g\	-ti-	.
!LO:TX:t=P:problem=kreska pseudotaktowa	!	!	!	!	!	!	!	!	!
2G\	-ti-	.	.	2B\	-ti-	.	2g\	-ti-	.
=111-	=111-	=111-	=111-	=111-	=111-	=111-	=111-	=111-	=111-
!	!	!	!	!	!	!	!LO:N:vis=0	!	!
0C/	-a	.	.	0.c\	-a	.	0.g\,<	-a	.
!LO:TX:t=P:problem=kreska pseudotaktowa	!	!	!	!	!	!	!	!	!
[<1E\	lae-	.	.	.	.	.	.	.	.
=112-	=112-	=112-	=112-	=112-	=112-	=112-	=112-	=112-	=112-
1E\]	.	.	.	1c\	lae-	.	1g\	lae-	.
1.G\)	-ti-	.	.	1.c\	-ti-	.	1.g\	-ti-	.
!LO:TX:t=P:problem=kreska pseudotaktowa	!	!	!	!	!	!	!	!	!
2G\	-ti-	.	.	2B\	-ti-	.	2g\	-ti-	.
=113-	=113-	=113-	=113-	=113-	=113-	=113-	=113-	=113-	=113-
!LO:TX:t=P:problem=kreska pseudotaktowa	!	!	!	!	!	!	!	!	!
0.C/	-a	.	.	0.c\	-a	.	0.g\	-a	.
=114-	=114-	=114-	=114-	=114-	=114-	=114-	=114-	=114-	=114-
1c\	Al-	.	.	1c\	al-	.	1e\	Al-	.
1A\	-le-	.	.	1c\	-le-	.	1e\	-le-	.
!LO:TX:t=P:problem=kreska pseudotaktowa	!	!	!	!	!	!	!	!	!
1G\	-lu-	.	.	1B\	-lu-	.	1g\	-lu-	.
=115-	=115-	=115-	=115-	=115-	=115-	=115-	=115-	=115-	=115-
1.C/	-ia	.	.	1.c\	-ia	.	0g\,<	-ia	.
*	*ij	*	*	*	*	*	*	*	*
2D/	Al-	.	.	4B/	.	.	.	.	.
.	.	.	.	4A/	.	.	.	.	.
2E\	le-	.	.	2G/	.	.	1g\	al-	.
!LO:TX:t=P:problem=kreska pseudotaktowa	!	!	!	!	!	!	!	!	!
2F\	.	.	.	2A/	.	.	.	.	.
=116-	=116-	=116-	=116-	=116-	=116-	=116-	=116-	=116-	=116-
2G\	-lu-	.	.	2B/	.	.	0g\	-le-	.
2GG/	-ia	.	.	2c/	.	.	.	.	.
!	!	!	!	!LO:LB:g=original	!	!	!	!	!
1.D\	Al-	.	.	1.d\	al-	.	.	.	.
.	.	.	.	.	.	.	1f#X\	-lu-	.
*custos:GG	*	*	*	*	*	*	*	*	*
2D/	-le-	.	.	2d\	-l(e-	.	.	.	.
!LO:LB:g=original	!	!	!	!	!	!	!	!	!
=117-	=117-	=117-	=117-	=117-	=117-	=117-	=117-	=117-	=117-
*	*	*	*	*	*	*	*custos:g	*	*
!LO:TX:t=P:problem=kreska pseudotaktowa	!	!	!	!	!	!	!	!	!
0.GG/	-lu-	.	.	0.d\	-lu-	.	0.g\	-ia	.
!	!	!	!	!	!	!	!LO:LB:g=original	!	!
=118-	=118-	=118-	=118-	=118-	=118-	=118-	=118-	=118-	=118-
0G\	-ia	.	.	0B\	-ia)	.	0g\	al-	.
*	*	*	*	*	*ij	*	*	*	*
!LO:TX:t=P:problem=kreska pseudotaktowa	!	!	!	!	!	!	!	!	!
1E\	Al-	.	.	1c#X\	al-	.	1g\	-le-	.
=119-	=119-	=119-	=119-	=119-	=119-	=119-	=119-	=119-	=119-
0D\	-le-	.	.	0d\	-le-	.	0a\	-lu-	.
!LO:TX:t=P:problem=kreska pseudotaktowa	!	!	!	!	!	!	!	!	!
1A\	-lu-	.	.	1c#X\	-lu-	.	1a\	-ia	.
=120-	=120-	=120-	=120-	=120-	=120-	=120-	=120-	=120-	=120-
1B-X\	-ia	.	.	1d\	-ia	.	1fny\	al-	.
1.A\	Al-	.	.	1.d\	al-	.	1.a\	-le-	.
2A\	-le-	.	.	2c#X\	-le-	.	2a\	-lu-	.
=121-	=121-	=121-	=121-	=121-	=121-	=121-	=121-	=121-	=121-
!LO:TX:t=P:problem=kreska pseudotaktowa	!	!	!	!	!	!	!	!	!
0.D\	-lu-	.	.	0.d\	-lu-	.	0.f#X\	-ia	.
=122-	=122-	=122-	=122-	=122-	=122-	=122-	=122-	=122-	=122-
0D\	-ia	.	.	0d\	-ia	.	0a\	al-	.
1AA/	Al-	.	.	1cny\	al-	.	1a\	-le-	.
=123-	=123-	=123-	=123-	=123-	=123-	=123-	=123-	=123-	=123-
!LO:TX:t=P:problem=♮ above	!	!	!	!	!	!	!	!	!
0BBn/	-le-	.	.	0B\	-le-	.	(2f#X\	-lu-	.
.	.	.	.	.	.	.	2e\)	.	.
.	.	.	.	.	.	.	(2f#\	.	.
.	.	.	.	.	.	.	2g\)	.	.
!LO:TX:t=P:problem=kreska pseudotaktowa	!	!	!	!	!	!	!	!	!
1C/	-lu-	.	.	1A\	-lu-	.	1a\	.	.
=124-	=124-	=124-	=124-	=124-	=124-	=124-	=124-	=124-	=124-
1D\	-ia	.	.	1A\	-ia	.	1fny\,<	-ia	.
1.E\	Al-	.	.	1.A\	al-	.	1.e\	al-	.
2E\	-le-	.	.	2G#X/	-le-	.	2e\	-le-	.
=125-	=125-	=125-	=125-	=125-	=125-	=125-	=125-	=125-	=125-
1AA/	-lu-	.	.	1A\	-lu-	.	1e\	-lu-	.
1A\	-ia/	.	.	1A\	-ia	.	1e\	-ia	.
!LO:TX:t=P:problem=kreska pseudotaktowa	!	!	!	!	!	!	!	!	!
1r	.	.	.	1r	.	.	1r	.	.
=126-	=126-	=126-	=126-	=126-	=126-	=126-	=126-	=126-	=126-
1E\	al-	.	.	1c\	al-	.	1g\	al-	.
1.G\	-le-	.	.	1.c\	-le-	.	1.g\	-le-	.
!LO:TX:t=P:problem=kreska pseudotaktowa	!	!	!	!	!	!	!	!	!
2GG/	-lu-	.	.	2B\	-lu-	.	2g\	-lu-	.
=127-	=127-	=127-	=127-	=127-	=127-	=127-	=127-	=127-	=127-
1C/	-ia	.	.	1c\	-ia	.	1e\	-ia.	.
1r	.	.	.	1r	.	.	1r	.	.
1r	.	.	.	1r	.	.	1r	.	.
==	==	==	==	==	==	==	==	==	==
*-	*-	*-	*-	*-	*-	*-	*-	*-	*-
!!!system-decoration: [(s1,s2,s3)]
!!!RDF**kern: > = above
!!!RDF**kern: < = below
!!!RDF**dynam: p = p.
!!!RDF**dynam: f = f.
!!!EED: Andrzej Borzym
!!!EEV: 2021-07-07
!!!ENC: Krzysztof Stępień
!!!END: 2021-06-25
